dist/svgs/unicons/line/images.svg

<svg xmlns="http://www.w3.org/2000/svg" viewBox="0 0 24 24"><path d="M18 15V5a3 3 0 00-3-3H5a3 3 0 00-3 3v10a3 3 0 003 3h10a3 3 0 003-3zM4 5a1 1 0 011-1h10a1 1 0 011 1v4.36l-1.08-1.09a2.56 2.56 0 00-1.81-.75 2.58 2.58 0 00-1.81.75l-.91.91-.81-.81a2.93 2.93 0 00-4.11 0L4 9.85zm.12 10.45A.94.94 0 014 15v-2.33l2.88-2.88a.91.91 0 011.29 0l.83.81zm8.6-5.76a.52.52 0 01.39-.17.52.52 0 01.39.17l2.5 2.49V15a1 1 0 01-1 1H6.4zM21 6a1 1 0 00-1 1v10a3 3 0 01-3 3H7a1 1 0 000 2h10a5 5 0 005-5V7a1 1 0 00-1-1z"/></svg>

<svg xmlns="http://www.w3.org/2000/svg" viewBox="0 0 24 24"><path d="M18,15V5a3,3,0,0,0-3-3H5A3,3,0,0,0,2,5V15a3,3,0,0,0,3,3H15A3,3,0,0,0,18,15ZM4,5A1,1,0,0,1,5,4H15a1,1,0,0,1,1,1V9.36L14.92,8.27a2.56,2.56,0,0,0-1.81-.75h0a2.58,2.58,0,0,0-1.81.75l-.91.91-.81-.81a2.93,2.93,0,0,0-4.11,0L4,9.85Zm.12,10.45A.94.94,0,0,1,4,15V12.67L6.88,9.79a.91.91,0,0,1,1.29,0L9,10.6Zm8.6-5.76a.52.52,0,0,1,.39-.17h0a.52.52,0,0,1,.39.17L16,12.18V15a1,1,0,0,1-1,1H6.4ZM21,6a1,1,0,0,0-1,1V17a3,3,0,0,1-3,3H7a1,1,0,0,0,0,2H17a5,5,0,0,0,5-5V7A1,1,0,0,0,21,6Z"/></svg>
